Pods/ProtonCore-UIFoundations/libraries/UIFoundations/Sources/Assets.xcassets/Images/IconSet/ic-eraser.imageset/ic-eraser.svg

<svg width="24" height="24" viewBox="0 0 24 24" fill="none" xmlns="http://www.w3.org/2000/svg">
<path fill-rule="evenodd" clip-rule="evenodd" d="M16.3214 3.44121L20.5592 7.67864C21.145 8.2644 21.145 9.21411 20.5592 9.79987L18.1548 12.2041L11.7957 5.8454L14.2 3.44121C14.7858 2.85545 15.7356 2.85545 16.3214 3.44121ZM10.735 6.90601L4.93953 12.701C4.35372 13.2867 4.35372 14.2364 4.93953 14.8222L9.1773 19.0596C9.76311 19.6454 10.7129 19.6454 11.2987 19.0596L17.0941 13.2647L10.735 6.90601ZM18.6448 13.8353L12.9774 19.5023H21.75C22.1642 19.5023 22.5 19.8381 22.5 20.2523C22.5 20.6665 22.1642 21.0023 21.75 21.0023H2.25C1.83579 21.0023 1.5 20.6665 1.5 20.2523C1.5 19.8381 1.83579 19.5023 2.25 19.5023H7.49858L3.87883 15.8828C2.70721 14.7113 2.70721 12.8119 3.87883 11.6404L13.1393 2.3806C14.311 1.20907 16.2105 1.20907 17.3821 2.3806L21.6199 6.61802C22.7915 7.78955 22.7915 9.68897 21.6199 10.8605L18.7255 13.7546C18.7132 13.769 18.7003 13.7829 18.6867 13.7965C18.6731 13.8101 18.6592 13.823 18.6448 13.8353Z" fill="#0C0C14"/>
</svg>

<svg xmlns="http://www.w3.org/2000/svg" width="24" height="24" viewBox="0 0 24 24">
  <g class="ic-eraser">
    <path fill-rule="evenodd" d="M16.321 3.441 20.56 7.68a1.5 1.5 0 0 1 0 2.12l-2.404 2.405-6.36-6.359L14.2 3.441a1.5 1.5 0 0 1 2.121 0Zm-5.586 3.465L4.94 12.701a1.5 1.5 0 0 0 0 2.121l4.237 4.238a1.5 1.5 0 0 0 2.122 0l5.795-5.795-6.359-6.359Zm7.91 6.93-5.668 5.666h8.773a.75.75 0 0 1 0 1.5H2.25a.75.75 0 0 1 0-1.5h5.249l-3.62-3.62a3 3 0 0 1 0-4.242l9.26-9.26a3 3 0 0 1 4.243 0l4.238 4.238a3 3 0 0 1 0 4.242l-2.895 2.895a.726.726 0 0 1-.08.08Z" class="Icon"/>
  </g>
</svg>
